X:134
T:Honest Farmer
M:6/8
L:1/8
B:Thompson's Compleat Collection of 200 Favourite Country Dances, vol. 1 (London, 1757)
Z:Transcribed and edited by Flynn Titford-Mock, 2007
Z:abc's:AK/Fiddler's Companion
K:D
G|FGA Bcd|cBA efg|fed edc|d2 D d2::g|fga bBb|efg aAa|
def gfe|dcB AGF|GAB ABc|Bcd efg|fed edc|d2 d d2:|

